public/img/footer/ball.svg

<svg width="40" height="41" viewBox="0 0 40 41" fill="none" xmlns="http://www.w3.org/2000/svg">
<path d="M30.6636 7.90189L30.9693 7.51765L30.5907 7.20501C27.6753 4.79787 23.9726 3.35998 19.9218 3.35998C18.5026 3.35998 17.1267 3.55879 15.8239 3.8845L15.0968 4.06629L15.5439 4.66785C16.9345 6.53872 18.9322 9.36428 21.3246 13.7896L21.5312 14.1718L21.9385 14.0205C26.4658 12.3395 29.1786 9.76804 30.6636 7.90189ZM13.3633 5.14412L13.1183 4.82133L12.7517 4.99422C8.2556 7.11505 4.84923 11.1659 3.50458 16.1128L3.3385 16.7238L3.97134 16.7437C6.44724 16.8217 12.3654 16.705 18.9231 14.9482L19.5416 14.7825L19.2309 14.2226C16.6875 9.63894 14.5485 6.7054 13.3633 5.14412ZM32.8171 9.4031L32.4294 8.94246L32.0478 9.40819C30.3918 11.4294 27.5165 14.0547 22.9642 15.8361L22.4579 16.0342L22.6976 16.5221C23.6791 18.5203 24.6313 20.6496 25.4989 22.949L25.6418 23.3279L26.0421 23.2668C29.3354 22.7639 32.3796 22.7639 34.679 22.944C35.2381 22.9904 35.5988 23.0425 36.0187 23.1031C36.1072 23.1159 36.1982 23.1291 36.2943 23.1426L36.8064 23.2149L36.8614 22.7007C36.9288 22.0701 36.9676 21.4368 36.9676 20.7822C36.9676 16.4287 35.3902 12.4602 32.8171 9.4031ZM20.6701 17.0304L20.485 16.6592L20.086 16.7726C12.3727 18.9639 5.57803 18.897 3.46198 18.8116L2.98015 18.7921L2.94327 19.2729L2.94069 19.3066C2.90413 19.7831 2.8666 20.2721 2.8666 20.7918C2.8666 26.0256 5.13097 30.6976 8.70191 33.8945L9.07471 34.2283L9.40819 33.8552C10.3033 32.8539 11.5039 31.5786 12.9635 30.2474L12.9655 30.2456C15.7118 27.7139 19.2452 25.0351 23.0942 23.8663L23.6111 23.7093L23.4147 23.2061C22.5532 20.9984 21.6256 18.9462 20.6701 17.0304ZM30.1596 24.9266L30.1542 24.9268C29.1431 24.9756 28.0668 25.0731 26.9723 25.2191L26.3775 25.2984L26.5628 25.8692C27.4866 28.713 28.2507 31.7255 28.7443 34.8593L28.8686 35.6482L29.5239 35.1919C32.71 32.9733 35.12 29.6763 36.2427 25.8059L36.408 25.2363L35.8186 25.1698C34.3586 25.0049 32.5073 24.8387 30.1596 24.9266ZM24.5036 26.1119L24.35 25.6585L23.8904 25.7922C20.509 26.7761 16.9721 29.3273 14.2917 31.7876C12.9965 32.9662 11.9505 34.085 11.111 35.0015L10.6983 35.452L11.2216 35.7674C13.7671 37.3018 16.723 38.2045 19.9124 38.2045C22.306 38.2045 24.5638 37.6988 26.6257 36.8078L26.9737 36.6573L26.9228 36.2816C26.4385 32.7078 25.5843 29.3017 24.5036 26.1119ZM0.867676 20.7822C0.867676 10.029 9.43492 1.2832 19.9218 1.2832C30.4087 1.2832 38.9759 10.029 38.9759 20.7822C38.9759 31.5354 30.4087 40.2812 19.9218 40.2812C9.43492 40.2812 0.867676 31.5354 0.867676 20.7822Z" fill="#070707" stroke="#070707"/>
</svg>

<svg width="40" height="41" fill="none" xmlns="http://www.w3.org/2000/svg"><path d="M30.664 7.902l.305-.384-.378-.313A16.673 16.673 0 0019.92 3.36a16.9 16.9 0 00-4.097.525l-.727.181.447.602c1.39 1.87 3.388 4.696 5.78 9.122l.207.382.408-.152c4.527-1.68 7.24-4.252 8.725-6.118zm-17.3-2.758l-.246-.323-.366.173c-4.496 2.121-7.903 6.172-9.247 11.119l-.167.61.633.02c2.476.079 8.394-.038 14.952-1.795l.619-.165-.311-.56c-2.544-4.584-4.683-7.518-5.868-9.079zm19.453 4.26l-.388-.462-.381.466c-1.656 2.021-4.532 4.647-9.084 6.428l-.506.198.24.488a72.893 72.893 0 012.8 6.427l.144.379.4-.061a38.402 38.402 0 018.637-.323c.56.046.92.099 1.34.16l.275.039.512.072.055-.514a17.62 17.62 0 00-4.044-13.298zM20.67 17.03l-.185-.37-.399.113c-7.713 2.19-14.508 2.124-16.624 2.039l-.482-.02-.037.48-.002.035c-.037.476-.074.965-.074 1.485a17.52 17.52 0 005.835 13.102l.373.334.333-.373a49.75 49.75 0 013.556-3.608l.002-.001c2.746-2.532 6.28-5.21 10.128-6.38l.517-.157-.196-.503a74.456 74.456 0 00-2.745-6.176zm9.49 7.897h-.006a38.168 38.168 0 00-3.182.292l-.595.08.186.57c.924 2.844 1.688 5.857 2.181 8.99l.125.79.655-.457a17.321 17.321 0 006.719-9.386l.165-.57-.59-.066c-1.46-.165-3.31-.331-5.658-.243zm-5.656 1.185l-.154-.453-.46.133c-3.381.984-6.918 3.535-9.598 5.996-1.296 1.178-2.341 2.297-3.181 3.213l-.413.451.524.315c2.545 1.535 5.501 2.438 8.69 2.438a16.85 16.85 0 006.714-1.397l.348-.15-.051-.376c-.484-3.574-1.339-6.98-2.42-10.17zM.868 20.782c0-10.753 8.567-19.499 19.054-19.499 10.487 0 19.054 8.746 19.054 19.5 0 10.752-8.567 19.498-19.054 19.498C9.435 40.281.868 31.535.868 20.782z" fill="#070707" stroke="#070707"/></svg>
